!!!COM: Bach, Johann Sebastian
!!!OPR: Joh. Seb. Bachs vierstimmige Choralges‰nge
!!!XEN: Four-part Chorales
!!!OTL: 100. Jesu, der du meine Seele
!!!SCT: BWV 353
!!!SCA: Thematisch-systematisches Verzeichnis der musikalischen Werke Johann Sebastian Bach: Bach-Werke-Verzeichnis (Schmieder)
!!!YOR: Bach Gesellschaft Edition xxxix
!!!ENC: Steven Rasmussen
!!!CDT: 1685/3//-1750/7/28/
!!!OCY: Deutschland
!!!YEC: Copyright (c) 1994, 2000 Center for Computer Assisted Research in the Humanities
!!!YEM: Rights to all derivative editions reserved
!!!YEN: United States of America
**kern	**silbe	**kern	**kern	**kern
*I:[SOPRANO]	*I:[SOPRANO]	*I:[ALTO]	*I:[TENORE]	*I:[BASSO]
*>[A,A,B]	*	*>[A,A,B]	*>[A,A,B]	*>[A,A,B]
*>A	*	*>A	*>A	*>A
*clefG2	*	*clefG2	*clefGv2	*clefF4
*k[b-e-]	*	*k[b-e-]	*k[b-e-]	*k[b-e-]
*g:	*	*g:	*g:	*g:
*M4/4	*	*M4/4	*M4/4	*M4/4
=1-	=1-	=1-	=1-	=1-
4dd	Je-aus	8gL	8B-L	8GL
.	.	8f#J	8cJ	8AJ
4dd	-su,des	4g	4d	8B-L
.	.	.	.	8cJ
4a	derTeu-	4f#	4d	4d
4b-	du-fels	4g	4d	8cL
.	.	.	.	8B-J
=2	=2	=2	=2	=2
4cc	mei-finst-	8gL	4c	4A
.	.	8f#J	.	.
8b-L	-ne-rer	4g	4d	4G
8aJ	.	.	.	.
2a	See-H√∂h-	4g	4e-	4C
.	.	4f#	8dL	4D
.	.	.	8cJ	.
=3	=3	=3	=3	=3
2g;	-le-le	2d;	2B-;	2GG;
4b-	hastund	4g	4d	8GL
.	.	.	.	8FJ
4b-	durchder	8gL	4G	8E-L
.	.	8fJ	.	8DJ
=4	=4	=4	=4	=4
4a	dei-schwe-	8e-L	8GL	8CL
.	.	8dJ	8F#J	8DJ
4g	-nen-ren	8dL	4G	4E-
.	.	8cJ	.	.
4f#	bit-S√ºn-	4c	8AL	4AA
.	.	.	8cJ	.
4g	-tern-den-	4d	8B-L	4GG
.	.	.	8GJ	.
=5	=5	=5	=5	=5
1a;	Tod-not	1d;	1F#;	1D;
=6:|!	=6:|!	=6:|!	=6:|!	=6:|!
*>B	*	*>B	*>B	*>B
4a	kr√§f-	4f#	4d	4D
4b-	-tig-	4g	4d	8GL
.	.	.	.	8FJ
4cc	-lich	4g	4c	4En
4a	her-	4fn	4c	8FL
.	.	.	.	8EJ
=7	=7	=7	=7	=7
4b-	-aus-	4f	8B-L	4D
.	.	.	8cJ	.
8aL	-ge-	4f	4d	8CL
8gJ	.	.	.	8BB-J
2g	-ris-	4f	4.c	2C
.	.	4en	.	.
.	.	.	8B-	.
=8	=8	=8	=8	=8
2f;	-sen	2c;	2A;	2FF;
4b-	und	4f	4d	4D
4cc	mich	4f	4A	4F
=9	=9	=9	=9	=9
4dd	Sol-	8fL	4B-	8B-L
.	.	8e-J	.	8cJ
4b-	-ches	8fL	4B-	8dL
.	.	8dJ	.	8B-J
4ee-	las-	4g	8B-L	8GL
.	.	.	8cJ	8AJ
4dd	-sen	4g	8dL	8B-L
.	.	.	8B-J	8GJ
=10	=10	=10	=10	=10
2cc	wis-	4g	8GL	8E-L
.	.	.	8e-J	8CJ
.	.	8fL	4A	4F
.	.	8e-J	.	.
2b-;	-sen	2d;	2B-;	2BB-;
=11	=11	=11	=11	=11
4a	durch	4f	4c	4F
4b-	dein	8e-L	4B-	4G
.	.	8dJ	.	.
4cc	an-	4c	8fL	4A
.	.	.	8e-J	.
4dd	-ge-	8fL	4d	8B-L
.	.	8gJ	.	8AJ
=12	=12	=12	=12	=12
4cc	-neh-	4a	4d	8GL
.	.	.	.	8F#J
4b-	-mes	4g	4d	4G
2a;	Wort:	2f#;	2d;	2D;
=13	=13	=13	=13	=13
4g	sei	4g	4d	8B-L
.	.	.	.	8AJ
4a	doch	4d	4d	8GL
.	.	.	.	8F#J
4b-	itzt,	4g	4d	8GL
.	.	.	.	8FnJ
8ccL	o	4g	8cL	8E-L
8b-J	.	.	8dJ	8DJ
=14	=14	=14	=14	=14
4.a	Gott,	4g	8e-L	8CL
.	.	.	8cJ	8AAJ
.	.	4f#	8AL	4D
8g	mein	.	8dJ	.
2g;	Hort.	2d;	2Bn;	2GG;
==|!	==|!	==|!	==|!	==|!
*-	*-	*-	*-	*-
!!!RWG: Key is interpreted using the Humdrum key tool.
!!!END: 1994/06/27
!!!EMD: Converted from MuseData to Humdrum Dec 19, 2000, by Andreas Kornstaedt using muse2kern.
!!!EED: Craig Stuart Sapp
!!!EEV: 2024/03/31
!!!ONB: Some non-unicode characters
